X: 14
T: All the Rage
I: All the Rage	J-48	E	jig
C: Larry Unger \2511989
M: 6/8
R: jig
K: E
e| "E"fgg gfe| fgg g2e| "A"cee "E"Bee| "F#m7"gfe "B7"f2e|
   "E"fgg gfe| fgg g2b| "A"gfe "B7"fed| "E"e3- e2:|
|:e| "A"cee "E"Bee| "A"cee "E"B2e| "A"ece "F#m7"fef| "E"gbg "B7"f2e|
   "A"cee "E"Bee| "A"cee "E"B2b| "A"gfe "B7"fed| "E"e3- e2:|
%%text Roaring Jelly  J-48

#include "RightHeader.h"
%%footer 08/29/98 For use only by Roaring Jelly members
% ---------- set 37 ----------
% Hare in the Corn (G) / Reunion Jig (D) / Birthday Jig (G)
%%text Set 37
%%vskip -1cm
